cssgg/info.svg

<svg
  width="24"
  height="24"
  viewBox="0 0 24 24"
  fill="none"
  xmlns="http://www.w3.org/2000/svg"
>
  <path
    d="M11 10.9794C11 10.4271 11.4477 9.97937 12 9.97937C12.5523 9.97937 13 10.4271 13 10.9794V16.9794C13 17.5317 12.5523 17.9794 12 17.9794C11.4477 17.9794 11 17.5317 11 16.9794V10.9794Z"
    fill="currentColor"
  />
  <path
    d="M12 6.05115C11.4477 6.05115 11 6.49886 11 7.05115C11 7.60343 11.4477 8.05115 12 8.05115C12.5523 8.05115 13 7.60343 13 7.05115C13 6.49886 12.5523 6.05115 12 6.05115Z"
    fill="currentColor"
  />
  <path
    fill-rule="evenodd"
    clip-rule="evenodd"
    d="M12 2C6.47715 2 2 6.47715 2 12C2 17.5228 6.47715 22 12 22C17.5228 22 22 17.5228 22 12C22 6.47715 17.5228 2 12 2ZM4 12C4 16.4183 7.58172 20 12 20C16.4183 20 20 16.4183 20 12C20 7.58172 16.4183 4 12 4C7.58172 4 4 7.58172 4 12Z"
    fill="currentColor"
  />
</svg>

<svg viewBox="0 0 24 24" xmlns="http://www.w3.org/2000/svg"><g><path d="M11 10.97c0-.56.44-1.01 1-1.01 .55 0 1 .44 1 1v6c0 .55-.45 1-1 1 -.56 0-1-.45-1-1v-6Z"/><path d="M12 6.05c-.56 0-1 .44-1 1 0 .55.44 1 1 1 .55 0 1-.45 1-1 0-.56-.45-1-1-1Z"/><path fill-rule="evenodd" d="M12 2C6.47 2 2 6.47 2 12c0 5.52 4.47 10 10 10 5.52 0 10-4.48 10-10 0-5.53-4.48-10-10-10ZM4 12c0 4.41 3.58 8 8 8 4.41 0 8-3.59 8-8 0-4.42-3.59-8-8-8 -4.42 0-8 3.58-8 8Z"/></g></svg>
